X:367
T:Calton Weaver, The
S:Robin Hall and Jimmie Macgregor
L:1/8
M:2/4
K:G
GG/G/ BG/G/|AG ED|GG/G/ Bd/d/|ee d2|
ed g<B|AG ED|DG/G/ BG/G/|AA D2|
GG BG|A>G ED|G>G Bd|BA G2|]
<end>
<start>
